symbols/web/5mp/materialsymbolssharp/5mp_wght700grad200_40px.svg

<svg xmlns="http://www.w3.org/2000/svg" height="40" width="40"><path d="M15.875 19.292h7.25v-5.667h-5.042v-2.083h5.042V9.333h-7.25v5.75h5.042v2h-5.042ZM3.792 36.208V3.75H36.25v32.458Zm4.416-4.416h23.584V8.208H8.208Zm1.584-1.084H12v-7.375h2.042v5h2.208v-5h2.292v7.375h2.166v-9.625H9.792Zm13.166 0h2.209v-2.416h5.041v-7.209h-7.25Zm2.209-7.375h2.791v2.709h-2.791ZM8.208 8.208v23.584Z"/></svg>

<svg xmlns="http://www.w3.org/2000/svg" height="40" width="40"><path d="M15.875 19.292H23.125V13.625H18.083V11.542H23.125V9.333H15.875V15.083H20.917V17.083H15.875ZM3.792 36.208V3.75H36.25V36.208ZM8.208 31.792H31.792V8.208H8.208ZM9.792 30.708H12V23.333H14.042V28.333H16.25V23.333H18.542V30.708H20.708V21.083H9.792ZM22.958 30.708H25.167V28.292H30.208V21.083H22.958ZM25.167 23.333H27.958V26.042H25.167ZM8.208 8.208V31.792Z"/></svg>
